X:1
T:In pride of May - Weelkes
T:James Gibb editions
T:#
%%score { 1 | 2 } 3 4 5
L:1/8
M:4/4
K:G
V:1 treble nm="Soprano I" snm="S"
V:2 treble 
V:3 treble nm="Alto" snm="A"
V:4 treble-8 nm="Tenor" snm="T"
V:5 bass nm="Bass" snm="B"
V:1
 d4 B3 c | d2 G2"^In pride of May" A3 A | B4 z2 d2 | B3 c d2"^Thomas Weelkes\n(c. 1575-1623)" A2 | %4
w: In pride of|May the fields are|gay, in|pride of May the|
w: ||||
w: Then La- dy|dear do you ap-|pear, then|La- dy dear do|
[M:4/4] G2 G2 A2 d2 | B3 c d4 | z2 G2 G2 F2 | G4 z2 A2 | B2 B2 A4 | z4 z2 d2 | e3 d c2 d2 | %11
w: fields are gay, in|pride of May|the fields are|gay, the|fields are gay|the|birds do sing, do|
w: |||||||
w: you ap- pear, then|La- dy dear|do you ap-|pear, do|you ap- pear,|in|beau- ty like the|
 (dc) B2 A4 | z4 B4 | c2 e3 dcB | A2 _B2 A4 | D4 z4 | E4 =F2 A2 | G2 d2 c2 B2 | A2 G4 F2 | %19
w: sweet\- * ly sing.||||||||
w: |Fa|la la la la la|la, fa la|la,|fa la la|la, fa la la|la la la|
w: Spring, * the Spring.||||||||
 G4 z2 d2 | B3 c d4 | z2 G2 A2 A2 | G4 z2 d2 | B3 c d4 | z2 G2 A2 A2 | G4 z2 A2 | B2 B2 A4 | %27
w: * In|pride of May|the fields are|gay, in|pride of May|the fields are|gay, the|fields are gay,|
w: la. *||||||||
w: * Then|La- dy dear|do you ap-|pear, then|La- dy dear|do you ap-|pear, do|you ap- pear,|
 z2 B2 d3 c | B2 G2 B3 A | G4 A4 | G2 G2 F4 | z4 G4 | A2 c3 BAG | =FE D3 E ^F2 | G4 z4 | %35
w: the birds do|sing, the birds do|sing, do|sweet- ly sing.|||||
w: ||||Fa|la la la la la|la la la la la|la,|
w: in beau- ty|like the Spring, in|beau- ty|like the Spring.|||||
 G2 A4 d2- | dcBA G2 d2- | dc B2 A4 | B8 | z8 | z2 d2 e2 B2 | ^cc d4 c2 || %42
w: |||||So na- ture|would that all things|
w: fa la la|* la la la la, fa|* la la la|la.||||
w: |||||I well dare|say the birds that|
[M:3/4][Q:1/4=180] d4 d2 |[M:3/4][Q:1/4=180][Q:1/4=180][Q:1/4=180][Q:1/4=180] e3 d !courtesy!=cB | %44
w: should with|joy be- gin the|
w: ||
w: day more|cheer- ful- ly will|
 c3 d e2 | d2 d3 d ||[M:4/4][Q:1/4=120] d2 d2 e3 e | dcBA G4 |[M:4/4] z2 d2 e3 e | dcBA G4 | %50
w: Spring, with joy|be- gin the|Spring. * * *||||
w: ||* Fa la la|la la la la la,|fa la la|la la la la la,|
w: sing, more cheer-|ful- ly will|sing. * * *||||
 z2 d2 edcB | A2 G4 F2 | G8 | z2 G2 A2 !courtesy!^F2 | G3 A B4 | A8 ||[M:3/4][Q:1/4=180] A4 B2 | %57
w: |||So na- ture|would that all|things|should with|
w: fa la la la la|la la la|la.|||||
w: |||I well dare|say the birds|that|day more|
[M:3/4] c3 G cd | e3 d c2 | B2 A3 A ||[M:4/4][Q:1/4=120] B4 z4 | z2 d2 e3 e |[M:4/4] dcBA G4 | %63
w: joy be- gin the|Spring, with joy|be- gin the|Spring.|||
w: ||||Fa la la|la la la la la,|
w: cheer- ful- ly will|sing, more cheer-|ful- ly will|sing.|||
 z2 d2 e3 e | dc[Q:1/4=119]B[Q:1/4=117]A[Q:1/4=115] G2[Q:1/4=112] A2 | %65
w: ||
w: fa la la|la la la la la la|
w: ||
[Q:1/4=109] d2[Q:1/4=106] B2[Q:1/4=102] A4 |[Q:1/4=100] B8 |] %67
w: ||
w: la la la|la.|
w: ||
V:2
 z4 d4 | B3 c d4 | z2 G2 A2 A2 | G4 z2 d2 |[M:4/4] B3 c d4 | z2 G2 A2 A2 | G4 z2 A2 | B2 B2 A4 | %8
w: In|pride of May|the fields are|gay, in|pride of May|the fields are|gay, the|fields are gay,|
w: ||||||||
w: Then|La- dy dear|do you ap-|pear, then|La- dy dear|do you ap-|pear, do|you ap- pear,|
 z2 B2 d3 c | B2 G2 B3 A | G4 A4 | G2 G2 F4 | z4 G4 | A2 c3 BAG | =FE D3 E ^F2 | G4 z4 | %16
w: the birds do|sing, the birds do|sing, do|sweet- ly sing.|||||
w: ||||Fa|la la la la la|la la la la la|la,|
w: in beau- ty|like the Spring, in|beau- ty|like the Spring.|||||
 G2 A4 d2- | dcBA G2 d2- | dc B2 A4 | B2 d2 B3 c | d2 G2 A3 A | B4 z2 d2 | B3 c d2 A2 | %23
w: |||* In pride of|May the fields are|gay, in|pride of May the|
w: fa la la|* la la la la, fa|* la la la|la. * * *||||
w: |||* Then La- dy|dear do you ap-|pear, then|La- dy dear do|
 G2 G2 A2 d2 | B3 c d4 | z2 G2 G2 F2 | G4 z2 A2 | B2 B2 A4 | z4 z2 d2 | e3 d c2 d2 | (dc) B2 A4 | %31
w: fields are gay, in|pride of May|the fields are|gay, the|fields are gay|the|birds do sing, do|sweet\- * ly sing.|
w: ||||||||
w: you ap- pear, then|La- dy dear|do you ap-|pear, do|you ap- pear,|in|beau- ty like the|Spring, * the Spring.|
 z4 B4 | c2 e3 dcB | A2 _B2 A4 | D4 z4 | E4 =F2 A2 | G2 d2 c2 B2 | A2 G4 F2 | G8 | %39
w: ||||||||
w: Fa|la la la la la|la, fa la|la,|fa la la|la, fa la la|la la la|la.|
w: ||||||||
 z2 G2 A2 !courtesy!^F2 | G3 A B4 | A8 ||[M:3/4] A4 B2 |[M:3/4] c3 G cd | e3 d c2 | B2 A3 A || %46
w: So na- ture|would that all|things|should with|joy be- gin the|Spring, with joy|be- gin the|
w: |||||||
w: I well dare|say the birds|that|day more|cheer- ful- ly will|sing, more cheer-|ful- ly will|
[M:4/4] B4 z4 | z2 d2 e3 e |[M:4/4] dcBA G4 | z2 d2 e3 e | dcBA G2 A2 | d2 B2 A4 | B8 | z8 | %54
w: Spring.||||||||
w: |Fa la la|la la la la la,|fa la la|la la la la la la|la la la|la.||
w: sing.||||||||
 z2 d2 e2 B2 | ^cc d4 c2 ||[M:3/4] d4 d2 |[M:3/4] e3 d !courtesy!=cB | c3 d e2 | d2 d3 d || %60
w: So na- ture|would that all things|should with|joy be- gin the|Spring, with joy|be- gin the|
w: ||||||
w: I well dare|say the birds that|day more|cheer- ful- ly will|sing, more cheer-|ful- ly will|
[M:4/4] d2 d2 e3 e | dcBA G4 |[M:4/4] z2 d2 e3 e | dcBA G4 | z2 d2 edcB | A2 G4 F2 | G8 |] %67
w: Spring. * * *|||||||
w: * Fa la la|la la la la la,|fa la la|la la la la la,|fa la la la la|la la la|la.|
w: sing. * * *|||||||
V:3
 z8 | z8 | z2 G2 G2 F2 | G4 z2 D2 |[M:4/4] E2 E2 D2 F2 | G2 G2 F4 | D4 D2 D2 | B,3 C D4 | %8
w: ||In pride of|May the|fields are gay, the|fields are gay,|are gay, in|pride of May|
w: ||||||||
w: ||Then La- dy|dear do|you ap- pear, do|you ap- pear,|ap- pear, then|La- dy dear|
 z2 G2 G2 F2 | G2 D2 G3 =F | E4 z2 A,2 | B,3 C D4 | z8 | z4 C4 | D2 =F3 EDC | B,C D2 C4 | z4 A,4 | %17
w: the fields are|gay, the birds do|sing, do|sweet- ly sing.||||||
w: |||||Fa|la la la la la|la la la la,|fa|
w: do you ap-|pear, in beau- ty|like the|Spring, the Spring.||||||
 B,4 E2 D2 | D8 | D8 | z8 | z2 G2 G2 F2 | G4 z2 D2 | E2 E2 D2 F2 | G2 G2 F4 | D4 D2 D2 | B,3 C D4 | %27
w: ||||In pride of|May the|fields are gay, the|fields are gay,|are gay, in|pride of May|
w: la la la|la|la.||||||||
w: ||||Then La- dy|dear do|you ap- pear, do|you ap- pear,|ap- pear, then|La- dy dear|
 z2 G2 G2 F2 | G2 D2 G3 =F | E4 z2 A,2 | B,3 C D4 | z8 | z4 C4 | D2 =F3 EDC | B,C D2 C4 | z4 A,4 | %36
w: the fields are|gay, the birds do|sing, do|sweet- ly sing.||||||
w: |||||Fa|la la la la la|la la la la,|fa|
w: do you ap-|pear, in beau- ty|like the|Spring, the Spring.||||||
 B,4 E2 D2 | D8 | D2 D2 E2 B,2 | C2 E2 D2 C2 | D4 z2 G2- | G2 =F2 E4 ||[M:3/4] !courtesy!^F4 G2 | %43
w: ||* So na- ture|would that all things|should, that|* all things|should with|
w: la la la|la|la. * * *|||||
w: ||* I well dare|say the birds that|day, the|* birds that|day more|
[M:3/4] G3 G GG | G3 G GG | G4 F2 ||[M:4/4] G8 | G2 G3 =F E2 |[M:4/4] G2 G3 =F E2 | G2 G3 =F E2 | %50
w: joy be- gin the|Spring, with joy be-|gin the|Spring.||||
w: ||||Fa la la la,|fa la la la,|fa la la la,|
w: cheer- ful- ly will|sing, more cheer- ful-|ly will|sing.||||
 G4 G,2 C2 | D4 D4 | D2 D2 E2 B,2 | C2 E2 D2 C2 | D4 z2 G2- | G2 =F2 E4 || %56
w: ||* So na- ture|would that all things|should, that|* all things|
w: fa la la|la la|la. * * *||||
w: ||* I well dare|say the birds that|day, the|* birds that|
[M:3/4] !courtesy!^F4 G2 |[M:3/4] G3 G GG | G3 G GG | G4 F2 ||[M:4/4] G8 | G2 G3 =F E2 | %62
w: should with|joy be- gin the|Spring, with joy be-|gin the|Spring.||
w: |||||Fa la la la,|
w: day more|cheer- ful- ly will|sing, more cheer- ful-|ly will|sing.||
[M:4/4] G2 G3 =F E2 | G2 G3 =F E2 | G4 G,2 C2 | D4 D4 | D8 |] %67
w: |||||
w: fa la la la,|fa la la la,|fa la la|la la|la.|
w: |||||
V:4
 z8 | z2 g2 g2 f2 | g4 z4 | z2 g2 g2 f2 |[M:4/4][K:treble-8] g4 z2 d2 | e2 e2 d2 A2 | B2 B2 A4 | %7
w: |In pride of|May|in pride of|May the|fields are gay, the|fields are gay,|
w: |||||||
w: |Then La- dy|dear,|then La- dy|dear do|you ap- pear, do|you ap- pear,|
 z2 G2 A2 A2 | G4 d4 | G8 | z4 e2 dc | B(A G2) A2 A2 | G2 B3 AG=F | E4 A4 | A2 =F3 G A2 | %15
w: the fields are|gay, are|gay,|the birds do|sweet- ly * sing. *||||
w: ||||* * * * Fa|la la la la la|la la|la la la la|
w: do you ap-|pear, ap-|pear,|in beau- ty|like the * Spring. *||||
 G2 B2 c2 e2- | edcB AG=FE | D2 G4 DE | F2 G2 A4 | G8 | z2 g2 g2 f2 | g4 z4 | z2 g2 g2 f2 | %23
w: |||||In pride of|May|in pride of|
w: la, fa la la|* la la la la la la la|la la la la|la la la|la.||||
w: |||||Then La- dy|dear,|then La- dy|
 g4 z2 d2 | e2 e2 d2 A2 | B2 B2 A4 | z2 G2 A2 A2 | G4 d4 | G8 | z4 e2 dc | B(A G2) A2 A2 | %31
w: May the|fields are gay, the|fields are gay,|the fields are|gay, are|gay,|the birds do|sweet- ly * sing. *|
w: |||||||* * * * Fa|
w: dear do|you ap- pear, do|you ap- pear,|do you ap-|pear, ap-|pear,|in beau- ty|like the * Spring. *|
 G2 B3 AG=F | E4 A4 | A2 =F3 G A2 | G2 B2 c2 e2- | edcB AG=FE | D2 G4 DE | F2 G2 A4 | G8 | %39
w: ||||||||
w: la la la la la|la la|la la la la|la, fa la la|* la la la la la la la|la la la la|la la la|la.|
w: ||||||||
 z4 z2 A2 | B2 G2 g3 =f | (e2 d2) e4 ||[M:3/4] d4 d2 |[M:3/4][K:treble-8] c3 d ed | c3 G c2 | %45
w: So|na- ture would that|all * things|should with|joy be- gin the|Spring, with joy|
w: ||||||
w: I|well dare say the|birds * that|day more|cheer- ful- ly will|sing, more cheer-|
 d2 d3 d ||[M:4/4] d4 z4 | z2 G2 c3 c |[M:4/4][K:treble-8] BAG=F ED C2 | G2 G2 c3 c | BAG=F E2 E2 | %51
w: be- gin the|Spring.|||||
w: ||Fa la la|la la la la la la la|la, fa la la|la la la la la la|
w: ful- ly will|sing.|||||
 A2 BG A4 | G8 | z4 z2 A2 | B2 G2 g3 =f | (e2 d2) e4 ||[M:3/4] d4 d2 |[M:3/4][K:treble-8] c3 d ed | %58
w: ||So|na- ture would that|all * things|should with|joy be- gin the|
w: la la la la|la.||||||
w: ||I|well dare say the|birds * that|day more|cheer- ful- ly will|
 c3 G c2 | d2 d3 d ||[M:4/4] d4 z4 | z2 G2 c3 c |[M:4/4][K:treble-8] BAG=F ED C2 | G2 G2 c3 c | %64
w: Spring, with joy|be- gin the|Spring.||||
w: |||Fa la la|la la la la la la la|la, fa la la|
w: sing, more cheer-|ful- ly will|sing.||||
 BAG=F E2 E2 | A2 BG A4 | G8 |] %67
w: |||
w: la la la la la la|la la la la|la.|
w: |||
V:5
 z8 | z8 | z4 z2 D,2 | E,2 E,2 D,4 |[M:4/4] z8 | z4 z2 D,2 | B,,3 C, D,4 | z2 G,2 G,2 F,2 | %8
w: ||The|fields are gay,||in|pride of May|the fields are|
w: ||||||||
w: ||Do|you ap- pear,||then|La- dy dear|do you ap-|
 G,4 z4 | z4 z2 G,2 | C3 B, A,2 F,2 | G,2 G,2 D,2 D,2 | E,2 G,3 =F,E,D, | C,3 B,, A,,4 | D,8 | %15
w: gay,|the|birds do sing, do|sweet- ly sing. *||||
w: |||* * * Fa|la la la la la|la la la|la,|
w: pear,|in|beau- ty like the|Spring, the Spring. *||||
 z2 G,2 A,2 C2- | CB,A,G, =F,E,D,C, | B,,A,,G,,=F,, E,,F,, G,,2 | D,8 | G,,8 | z8 | z4 z2 D,2 | %22
w: ||||||The|
w: fa la la|* la la la la la la la|la la la la la la la|la|la.|||
w: ||||||Do|
 E,2 E,2 D,4 | z8 | z4 z2 D,2 | B,,3 C, D,4 | z2 G,2 G,2 F,2 | G,4 z4 | z4 z2 G,2 | C3 B, A,2 F,2 | %30
w: fields are gay,||in|pride of May|the fields are|gay,|the|birds do sing, do|
w: ||||||||
w: you ap- pear,||then|La- dy dear|do you ap-|pear,|in|beau- ty like the|
 G,2 G,2 D,2 D,2 | E,2 G,3 =F,E,D, | C,3 B,, A,,4 | D,8 | z2 G,2 A,2 C2- | CB,A,G, =F,E,D,C, | %36
w: sweet- ly sing. *||||||
w: * * * Fa|la la la la la|la la la|la,|fa la la|* la la la la la la la|
w: Spring, the Spring. *||||||
 B,,A,,G,,=F,, E,,F,, G,,2 | D,8 | G,,4 z2"^I" G,2 | A,2 E,2 =F,2 A,2 | G,8 | A,8 || %42
w: |||So na- ture would|that|all|
w: la la la la la la la|la|la. *||||
w: |||well dare say the|birds|that|
[M:3/4] D,4 G,2 |[M:3/4] C,3 B,, C,G,, | C,3 B,, C,2 | G,,2 D,3 D, ||[M:4/4] G,,2 G,2 C3 C | %47
w: things should|with joy be- gin|Spring, with joy|be- gin the|Spring. * * *|
w: ||||* Fa la la|
w: day more|cheer- ful- ly will|sing, more cheer-|ful- ly will|sing. * * *|
 B,A,G,=F, E,D, C,2 |[M:4/4] G,2 G,2 C3 C | B,A,G,=F, E,D, C,2 | G,2 G,,2 C,B,,A,,G,, | %51
w: ||||
w: la la la la la la la|la, fa la la|la la la la la la la|la, fa la la la la|
w: ||||
 F,,2 G,,2 D,4 | G,,4 z2 G,2 | A,2 E,2 =F,2 A,2 | G,8 | A,8 ||[M:3/4] D,4 G,2 | %57
w: |* So|na- ture would that|all|things|should with|
w: la la la|la. *|||||
w: |* I|well dare say the|birds|that|day more|
[M:3/4] C,3 B,, C,G,, | C,3 B,, C,2 | G,,2 D,3 D, ||[M:4/4] G,,2 G,2 C3 C | B,A,G,=F, E,D, C,2 | %62
w: joy be- gin the|Spring, with joy|be- gin the|Spring. * * *||
w: |||* Fa la la|la la la la la la la|
w: cheer- ful- ly will|sing, more cheer-|ful- ly will|sing. * * *||
[M:4/4] G,2 G,2 C3 C | B,A,G,=F, E,D, C,2 | G,2 G,,2 C,B,,A,,G,, | F,,2 G,,2 D,4 | G,,8 |] %67
w: |||||
w: la, fa la la|la la la la la la la|la, fa la la la la|la la la|la.|
w: |||||

